polaris-icons/icons/newicons/QuickSaleMajor.svg

<svg width="20" height="20" viewBox="0 0 20 20" fill="none" xmlns="http://www.w3.org/2000/svg">
<path fill-rule="evenodd" clip-rule="evenodd" d="M5.25 3C4.83579 3 4.5 3.33579 4.5 3.75C4.5 4.16421 4.83579 4.5 5.25 4.5H6.58591L7.38848 11.0811C7.38924 11.0882 7.39011 11.0953 7.39107 11.1023L7.75552 14.0908C7.80141 14.4671 8.1209 14.75 8.5 14.75H15.75C16.1642 14.75 16.5 14.4142 16.5 14C16.5 13.5858 16.1642 13.25 15.75 13.25H9.16409L8.98117 11.75H16.25C16.6232 11.75 16.9397 11.4756 16.9925 11.1061L17.7425 5.85607C17.7722 5.64764 17.713 5.43629 17.5793 5.27366C17.4456 5.11103 17.2497 5.0121 17.0394 5.00104L8.10075 4.53058L7.99448 3.65921C7.94859 3.2829 7.6291 3 7.25 3H5.25ZM15.5995 10.25H8.79824L8.28511 6.04236L16.1415 6.45586L15.5995 10.25Z" fill="black"/>
<path d="M9.5 17.5C10.0523 17.5 10.5 17.0523 10.5 16.5C10.5 15.9477 10.0523 15.5 9.5 15.5C8.94772 15.5 8.5 15.9477 8.5 16.5C8.5 17.0523 8.94772 17.5 9.5 17.5Z" fill="black"/>
<path d="M16.5 16.5C16.5 17.0523 16.0523 17.5 15.5 17.5C14.9477 17.5 14.5 17.0523 14.5 16.5C14.5 15.9477 14.9477 15.5 15.5 15.5C16.0523 15.5 16.5 15.9477 16.5 16.5Z" fill="black"/>
<path d="M3 6.25C2.58579 6.25 2.25 6.58579 2.25 7C2.25 7.41421 2.58579 7.75 3 7.75H5C5.41421 7.75 5.75 7.41421 5.75 7C5.75 6.58579 5.41421 6.25 5 6.25H3Z" fill="black"/>
<path d="M2.25 10C2.25 9.58579 2.58579 9.25 3 9.25H5.5C5.91421 9.25 6.25 9.58579 6.25 10C6.25 10.4142 5.91421 10.75 5.5 10.75H3C2.58579 10.75 2.25 10.4142 2.25 10Z" fill="black"/>
<path d="M3 12.25C2.58579 12.25 2.25 12.5858 2.25 13C2.25 13.4142 2.58579 13.75 3 13.75H6C6.41421 13.75 6.75 13.4142 6.75 13C6.75 12.5858 6.41421 12.25 6 12.25H3Z" fill="black"/>
</svg>

<svg viewBox="0 0 20 20" fill="none" xmlns="http://www.w3.org/2000/svg"><path fill-rule="evenodd" clip-rule="evenodd" d="M5.25 3a.75.75 0 0 0 0 1.5h1.336l.802 6.581.003.021.365 2.989a.75.75 0 0 0 .744.659h7.25a.75.75 0 0 0 0-1.5h-6.586l-.183-1.5h7.269a.75.75 0 0 0 .742-.644l.75-5.25a.75.75 0 0 0-.703-.855l-8.938-.47-.107-.872a.75.75 0 0 0-.744-.659h-2Zm10.35 7.25h-6.802l-.513-4.208 7.857.414-.542 3.794Z" fill="#000"/><path d="M9.5 17.5a1 1 0 1 0 0-2 1 1 0 0 0 0 2Z" fill="#000"/><path d="M16.5 16.5a1 1 0 1 1-2 0 1 1 0 0 1 2 0Z" fill="#000"/><path d="M3 6.25a.75.75 0 0 0 0 1.5h2a.75.75 0 0 0 0-1.5h-2Z" fill="#000"/><path d="M2.25 10a.75.75 0 0 1 .75-.75h2.5a.75.75 0 0 1 0 1.5h-2.5a.75.75 0 0 1-.75-.75Z" fill="#000"/><path d="M3 12.25a.75.75 0 0 0 0 1.5h3a.75.75 0 0 0 0-1.5h-3Z" fill="#000"/></svg>
